src/16/actions/format-text-strikethrough.svg

<svg xmlns="http://www.w3.org/2000/svg" width="16" height="16" viewBox="0 0 16 16">
 <defs>
  <style id="current-color-scheme" type="text/css">
   .ColorScheme-Text { color:#565656; } .ColorScheme-Highlight { color:#5294e2; }
  </style>
 </defs>
 <path style="fill:currentColor" class="ColorScheme-Text" d="M 4 3 L 4 5 L 10 5 C 10.42816 5 11 5.61414 11 6 L 13 6 C 13 4.3657 11.6802 3 10 3 L 4 3 z M 1 7 L 1 9 L 15 9 L 15 7 L 1 7 z M 3 10 C 3.006 10.72062 3.26893 11.45275 3.78125 12.03125 C 4.29357 12.60979 5.0917 13 6 13 L 13 13 L 13 12.15625 C 13.0156 12.0625 13 12 13 12 L 13 10 L 11 10 L 11 11 L 6 11 C 5.60213 11 5.43309 10.89021 5.28125 10.71875 C 5.12941 10.54729 5.00248 10.27938 5 10 L 3 10 z"/>
</svg>

<svg xmlns="http://www.w3.org/2000/svg" width="16" height="16"><defs><style id="current-color-scheme" type="text/css"></style></defs><path d="M4 3v2h6c.428 0 1 .614 1 1h2a3 3 0 0 0-3-3H4zM1 7v2h14V7H1zm2 3c.006.72.269 1.453.781 2.031C4.294 12.61 5.091 13 6 13h7v-.844c.016-.094 0-.156 0-.156v-2h-2v1H6c-.398 0-.567-.11-.719-.281A1.144 1.144 0 0 1 5 10H3z" fill="currentColor" color="#565656"/></svg>
